src/lib/packages/icons/src/assets/filled/key-square.svg

<svg width="24" height="24" viewBox="0 0 24 24" fill="none" xmlns="http://www.w3.org/2000/svg">
<path d="M14.77 10C14.77 10.414 14.435 10.75 14.02 10.75C13.606 10.75 13.2649 10.414 13.2649 10C13.2649 9.586 13.596 9.25 14.01 9.25H14.02C14.435 9.25 14.77 9.586 14.77 10ZM21 6.375V17.625C21 19.875 19.875 21 17.625 21H6.375C4.125 21 3 19.875 3 17.625V6.375C3 4.125 4.125 3 6.375 3H17.625C19.875 3 21 4.125 21 6.375ZM16.5 10.5C16.5 8.845 15.155 7.5 13.5 7.5C11.845 7.5 10.5 8.845 10.5 10.5C10.5 10.805 10.5449 11.0951 10.6299 11.3701L7.5 14.5V16.5H9.5V15H11L12.6299 13.3701C12.9049 13.4551 13.195 13.5 13.5 13.5C15.155 13.5 16.5 12.155 16.5 10.5Z" fill="currentColor"/>
</svg>

<svg xmlns="http://www.w3.org/2000/svg" width="24" height="24" fill="none"><path fill="currentColor" d="M14.77 10a.75.75 0 0 1-.75.75.755.755 0 0 1-.755-.75c0-.414.331-.75.745-.75h.01a.75.75 0 0 1 .75.75ZM21 6.375v11.25C21 19.875 19.875 21 17.625 21H6.375C4.125 21 3 19.875 3 17.625V6.375C3 4.125 4.125 3 6.375 3h11.25C19.875 3 21 4.125 21 6.375ZM16.5 10.5c0-1.655-1.345-3-3-3a3.002 3.002 0 0 0-2.87 3.87L7.5 14.5v2h2V15H11l1.63-1.63a3.002 3.002 0 0 0 3.87-2.87Z"/></svg>
